svgs/icon.svg

<?xml version="1.0" encoding="utf-8"?>
<svg
	version="1.1"
	xmlns="http://www.w3.org/2000/svg"
	xmlns:xlink="http://www.w3.org/1999/xlink"
	x="0%" y="0%"
	width="100%" height="100%"
	viewBox="0 0 280.0 280.0"
	enable-background="new 0 0 280.0 280.0"
	xml:space="preserve">
	<path
		fill="#2B2B2B"
		stroke="#494949"
		fill-opacity="1.000"
		stroke-opacity="1.000"
		fill-rule="nonzero"
		stroke-width="8.4"
		stroke-linejoin="round"
		stroke-linecap="round"
		d="M140.00,20.00C206.27,20.00,260.00,73.73,260.00,140.00C260.00,206.27,206.27,260.00,140.00,260.00C73.73,260.00,20.00,206.27,20.00,140.00C20.00,73.73,73.73,20.00,140.00,20.00z"/>
	<path
		fill="#FFFFFF"
		stroke="#E0E0E0"
		fill-opacity="0.000"
		stroke-opacity="1.000"
		fill-rule="nonzero"
		stroke-width="4.2"
		stroke-linejoin="round"
		stroke-linecap="round"
		d="M90.00,80.00L95.00,60.00L110.00,70.00"/>
	<path
		fill="#FFFFFF"
		stroke="#404040"
		fill-opacity="0.000"
		stroke-opacity="1.000"
		fill-rule="nonzero"
		stroke-width="4.2"
		stroke-linejoin="round"
		stroke-linecap="round"
		d="M210.00,170.00Q220.00,180.00,220.00,200.00Q180.00,200.00,140.00,160.00Q100.00,200.00,60.00,200.00Q60.00,180.00,70.00,170.00"/>
	<path
		fill="#FFFFFF"
		stroke="#404040"
		fill-opacity="0.000"
		stroke-opacity="1.000"
		fill-rule="nonzero"
		stroke-width="4.2"
		stroke-linejoin="round"
		stroke-linecap="round"
		d="M160.00,180.00Q160.00,200.00,140.00,220.00Q120.00,200.00,120.00,180.00"/>
	<path
		fill="#FFFFFF"
		stroke="#808080"
		fill-opacity="0.000"
		stroke-opacity="1.000"
		fill-rule="nonzero"
		stroke-width="4.2"
		stroke-linejoin="round"
		stroke-linecap="round"
		d="M200.00,140.00Q220.00,140.00,240.00,160.00Q200.00,180.00,140.00,160.00Q80.00,180.00,40.00,160.00Q60.00,140.00,80.00,140.00"/>
	<path
		fill="#FFFFFF"
		stroke="#A0A0A0"
		fill-opacity="0.000"
		stroke-opacity="1.000"
		fill-rule="nonzero"
		stroke-width="4.2"
		stroke-linejoin="round"
		stroke-linecap="round"
		d="M140.00,160.00Q220.00,160.00,220.00,80.00Q160.00,80.00,140.00,160.00z"/>
	<path
		fill="#FFFFFF"
		stroke="#A0A0A0"
		fill-opacity="0.000"
		stroke-opacity="1.000"
		fill-rule="nonzero"
		stroke-width="4.2"
		stroke-linejoin="round"
		stroke-linecap="square"
		d="M140.00,40.00Q80.00,100.00,140.00,160.00Q200.00,100.00,140.00,40.00z"/>
	<path
		fill="#FFFFFF"
		stroke="#A0A0A0"
		fill-opacity="0.000"
		stroke-opacity="1.000"
		fill-rule="nonzero"
		stroke-width="4.2"
		stroke-linejoin="round"
		stroke-linecap="round"
		d="M60.00,80.00Q120.00,80.00,140.00,160.00Q60.00,160.00,60.00,80.00z"/>
	<path
		fill="#FFFFFF"
		stroke="#E0E0E0"
		fill-opacity="0.000"
		stroke-opacity="1.000"
		fill-rule="nonzero"
		stroke-width="4.2"
		stroke-linejoin="round"
		stroke-linecap="round"
		d="M55.00,140.00L46.67,120.00L60.00,120.00"/>
	<path
		fill="#FFFFFF"
		stroke="#E0E0E0"
		fill-opacity="0.000"
		stroke-opacity="1.000"
		fill-rule="nonzero"
		stroke-width="4.2"
		stroke-linejoin="round"
		stroke-linecap="round"
		d="M220.00,120.00L233.33,120.00L225.00,140.00"/>
	<path
		fill="#FFFFFF"
		stroke="#E0E0E0"
		fill-opacity="0.000"
		stroke-opacity="1.000"
		fill-rule="nonzero"
		stroke-width="4.2"
		stroke-linejoin="round"
		stroke-linecap="round"
		d="M190.00,80.00L185.00,60.00L170.00,70.00"/>
</svg>

<svg xmlns="http://www.w3.org/2000/svg" x="0%" y="0%" viewBox="0 0 280 280" xml:space="preserve"><path fill="#2B2B2B" stroke="#494949" stroke-width="8.4" stroke-linejoin="round" stroke-linecap="round" d="M140 20c66.27 0 120 53.73 120 120 0 66.27-53.73 120-120 120-66.27 0-120-53.73-120-120C20 73.73 73.73 20 140 20z"/><path fill="none" stroke="#E0E0E0" stroke-width="4.2" stroke-linejoin="round" stroke-linecap="round" d="m90 80 5-20 15 10"/><path fill="none" stroke="#404040" stroke-width="4.2" stroke-linejoin="round" stroke-linecap="round" d="M210 170q10 10 10 30-40 0-80-40-40 40-80 40 0-20 10-30"/><path fill="none" stroke="#404040" stroke-width="4.2" stroke-linejoin="round" stroke-linecap="round" d="M160 180q0 20-20 40-20-20-20-40"/><path fill="none" stroke="gray" stroke-width="4.2" stroke-linejoin="round" stroke-linecap="round" d="M200 140q20 0 40 20-40 20-100 0-60 20-100 0 20-20 40-20"/><path fill="none" stroke="#A0A0A0" stroke-width="4.2" stroke-linejoin="round" stroke-linecap="round" d="M140 160q80 0 80-80-60 0-80 80z"/><path fill="none" stroke="#A0A0A0" stroke-width="4.2" stroke-linejoin="round" stroke-linecap="square" d="M140 40q-60 60 0 120 60-60 0-120z"/><path fill="none" stroke="#A0A0A0" stroke-width="4.2" stroke-linejoin="round" stroke-linecap="round" d="M60 80q60 0 80 80-80 0-80-80z"/><path fill="none" stroke="#E0E0E0" stroke-width="4.2" stroke-linejoin="round" stroke-linecap="round" d="m55 140-8.33-20H60M220 120h13.33L225 140M190 80l-5-20-15 10"/></svg>
